svg/vector_square_close.svg

<svg xmlns="http://www.w3.org/2000/svg" viewBox="0 0 24 24"><path d="M4 4h2v2H4zm2 16H4v-2h2zM18 8v8h-2v2H8v-2H6V8h2V2H2v6h2v8H2v6h6v-2h8v2h6v-6h-2V8h2V2h-6v6zm2 12h-2v-2h2zM18 6V4h2v2zm-4 0h-4V4h4z"/></svg>

<svg xmlns="http://www.w3.org/2000/svg" id="mdi-vector-square-close" viewBox="0 0 24 24"><path d="M4 4H6V6H4V4M6 20H4V18H6V20M18 8V16H16V18H8V16H6V8H8V2H2V8H4V16H2V22H8V20H16V22H22V16H20V8H22V2H16V8H18M20 20H18V18H20V20M18 6V4H20V6H18M14 6H10V4H14V6Z" /></svg>
